X:1
T:Title
%%score ( 1 2 ) { 3 | 4 }
L:1/8
Q:1/4=95
M:3/4
K:Eb
V:1 treble nm="Grand Piano, Soprano"
V:2 treble 
V:3 bass nm="Choir Pad, I�m Kneeling at the Cross"
V:4 bass 
V:1
 [EB]2 [EB]3 [EG] | [GB][Ge] [Ee][Ed] [Ec]2 | [Ee]2 [EB]3 [Ec] | [EB][EG] [EG] [DF]3 | %4
w: By~Silas~Jones~Vail * *||||
 [DB]2 [EB]3 [EG] | [GB][Ge] [Ee][Ed] [Ec]2 | [Ee]2 [Ee]3 [GB] | [FA][DF] [DF] E3 | %8
w: ||||
[M:4/4] E2 [DF]2- [DF][FA][EG][DF] | z2 G4 z2 | z8 | [EG]2 [DF]4 [FA]2 | %12
w: ||||
 [DF]2 [EG]2- [EG][EG] [FA]>[=EG] | [FA]>[Ac] [GB]4 [Ae]2- | [Ae]2 [Ge][GB] [EG]E [EG]2 | %15
w: |||
 [DF]2 E6- | E2 z2 z4 |] %17
w: ||
V:2
 x6 | x6 | x6 | x6 | x6 | x6 | x6 | x6 |[M:4/4] x8 | E>[EF] E4- [EB]2- | %10
 [EB]2 [Ec][Ec] [Ec][Ec] [EB]2 | x8 | x8 | x8 | x8 | x8 | x8 |] %17
V:3
 G,2 G,3 B, | EB, B,B, A,2 | C2 E3 E | B,B,[K:bass] B, A,3 | F,2 G,3 B, | EB, B,B, A,2 | C2 B,3 E | %7
 CB,[K:bass] A, G,3 |[M:4/4] G,2 B,2- B,B,B,A, | G,>A, B,4 G,2- | G,2 A,A, A,A, B,2 | B,2 B,6 | %12
 B,2 B,2- B,B, B,>B, | B,>[K:treble]D E4 C2- | C2 B,E[K:bass] B,G, B,2 | A,2 G,6- | G,2 z2 z4 |] %17
V:4
 E,2 E,3 E, | E,E, G,G, z2 | A,2 G,3 A, | G,E, B,, B,,3 | B,,2 E,3 E, | E,E, G,G, z2 | A,2 G,3 E, | %7
 A,,B,, B,, E,3 |[M:4/4] E,2 B,,2- B,,B,,B,,B,, | E,>E, E,6- | E,2 z2 z2 G,2 | E,2 B,,6 | %12
 B,,2 E,2- E,E, B,,>B,, | B,,>B,, E,4 A,,2- | A,,2 B,,B,, B,,B,, B,,2 | B,,2 E,6- | E,2 z2 z4 |] %17

